svg/fluentui-system-icons/ic_fluent_megaphone_circle_20_filled.svg

<svg width="20" height="20" viewBox="0 0 20 20" fill="none" xmlns="http://www.w3.org/2000/svg">
<path d="M10 2C5.58172 2 2 5.58172 2 10C2 14.4183 5.58172 18 10 18C14.4183 18 18 14.4183 18 10C18 5.58172 14.4183 2 10 2ZM7 12.0233L5.82904 11.6045C5.33183 11.4267 5 10.9556 5 10.4275V9.57628C5 9.04823 5.33183 8.57713 5.82904 8.3993L12.3303 6.07407C13.1444 5.78289 14.0012 6.3864 14.0012 7.25106V12.7527C14.0012 13.6174 13.1444 14.2209 12.3303 13.9297L10.9522 13.4368C10.7529 14.3313 9.95452 15 9 15C7.89543 15 7 14.1046 7 13V12.0233ZM9.99557 13.0947C9.94786 13.6026 9.52034 14 9 14C8.44772 14 8 13.5523 8 13V12.381L9.99557 13.0947Z" fill="#212121"/>
</svg>

<svg xmlns="http://www.w3.org/2000/svg" width="20" height="20"><path d="M10 2a8 8 0 1 0 0 16 8 8 0 0 0 0-16ZM7 12.023l-1.171-.418A1.25 1.25 0 0 1 5 10.427v-.85c0-.529.332-1 .829-1.178l6.501-2.325a1.25 1.25 0 0 1 1.671 1.177v5.502a1.25 1.25 0 0 1-1.67 1.177l-1.379-.493A2 2 0 0 1 7 13v-.977Zm2.996 1.072A1 1 0 0 1 8 13v-.619l1.996.714Z"/></svg>
